images/51029081.svg

<?xml version="1.0" encoding="UTF-8"?>
<svg xmlns="http://www.w3.org/2000/svg" xmlns:xlink="http://www.w3.org/1999/xlink" width="300pt" height="300pt" viewBox="0 0 300 300" version="1.1">
<defs>
<g>
<symbol overflow="visible" id="glyph0-0">
<path style="stroke:none;" d="M 0.453125 1.59375 L 0.453125 -6.34375 L 4.953125 -6.34375 L 4.953125 1.59375 Z M 0.953125 1.09375 L 4.453125 1.09375 L 4.453125 -5.84375 L 0.953125 -5.84375 Z M 0.953125 1.09375 "/>
</symbol>
<symbol overflow="visible" id="glyph0-1">
<path style="stroke:none;" d="M 0.890625 -6.5625 L 4.65625 -6.5625 L 4.65625 -5.8125 L 1.765625 -5.8125 L 1.765625 -3.875 L 4.375 -3.875 L 4.375 -3.140625 L 1.765625 -3.140625 L 1.765625 0 L 0.890625 0 Z M 0.890625 -6.5625 "/>
</symbol>
<symbol overflow="visible" id="glyph0-2">
<path style="stroke:none;" d="M 0.890625 -6.5625 L 2.078125 -6.5625 L 4.984375 -1.078125 L 4.984375 -6.5625 L 5.84375 -6.5625 L 5.84375 0 L 4.65625 0 L 1.75 -5.484375 L 1.75 0 L 0.890625 0 Z M 0.890625 -6.5625 "/>
</symbol>
<symbol overflow="visible" id="glyph0-3">
<path style="stroke:none;" d="M 3.546875 -5.953125 C 2.898438 -5.953125 2.382812 -5.710938 2 -5.234375 C 1.625 -4.753906 1.4375 -4.101562 1.4375 -3.28125 C 1.4375 -2.445312 1.625 -1.789062 2 -1.3125 C 2.382812 -0.832031 2.898438 -0.59375 3.546875 -0.59375 C 4.191406 -0.59375 4.703125 -0.832031 5.078125 -1.3125 C 5.453125 -1.789062 5.640625 -2.445312 5.640625 -3.28125 C 5.640625 -4.101562 5.453125 -4.753906 5.078125 -5.234375 C 4.703125 -5.710938 4.191406 -5.953125 3.546875 -5.953125 Z M 3.546875 -6.6875 C 4.460938 -6.6875 5.195312 -6.375 5.75 -5.75 C 6.300781 -5.132812 6.578125 -4.3125 6.578125 -3.28125 C 6.578125 -2.238281 6.300781 -1.410156 5.75 -0.796875 C 5.195312 -0.179688 4.460938 0.125 3.546875 0.125 C 2.617188 0.125 1.878906 -0.179688 1.328125 -0.796875 C 0.773438 -1.410156 0.5 -2.238281 0.5 -3.28125 C 0.5 -4.3125 0.773438 -5.132812 1.328125 -5.75 C 1.878906 -6.375 2.617188 -6.6875 3.546875 -6.6875 Z M 3.546875 -6.6875 "/>
</symbol>
</g>
</defs>
<g id="surface23493">
<rect x="0" y="0" width="300" height="300" style="fill:rgb(100%,100%,100%);fill-opacity:1;stroke:none;"/>
<path style="fill:none;stroke-width:1.2;stroke-linecap:butt;stroke-linejoin:miter;stroke:rgb(20%,80%,80%);stroke-opacity:1;stroke-miterlimit:10;" d="M 51.980469 178.886719 L 53.402344 166.769531 "/>
<path style="fill:none;stroke-width:1.2;stroke-linecap:butt;stroke-linejoin:miter;stroke:rgb(0%,0%,0%);stroke-opacity:1;stroke-miterlimit:10;" d="M 53.402344 166.769531 L 54.820312 154.648438 "/>
<path style=" stroke:none;fill-rule:nonzero;fill:rgb(100%,100%,100%);fill-opacity:1;" d="M 48.980469 173.386719 L 54.980469 173.386719 L 54.980469 184.386719 L 48.980469 184.386719 Z M 48.980469 173.386719 "/>
<g style="fill:rgb(20%,80%,80%);fill-opacity:1;">
  <use xlink:href="#glyph0-1" x="48.980469" y="182.049805"/>
</g>
<path style="fill:none;stroke-width:1.2;stroke-linecap:butt;stroke-linejoin:miter;stroke:rgb(0%,0%,0%);stroke-opacity:1;stroke-miterlimit:10;" d="M 54.820312 154.648438 L 35.25 140.066406 "/>
<path style="fill:none;stroke-width:1.2;stroke-linecap:butt;stroke-linejoin:miter;stroke:rgb(0%,0%,0%);stroke-opacity:1;stroke-miterlimit:10;" d="M 56.296875 148.585938 L 40.636719 136.917969 "/>
<path style="fill:none;stroke-width:1.2;stroke-linecap:butt;stroke-linejoin:miter;stroke:rgb(0%,0%,0%);stroke-opacity:1;stroke-miterlimit:10;" d="M 77.234375 144.988281 L 54.820312 154.648438 "/>
<path style="fill:none;stroke-width:1.2;stroke-linecap:butt;stroke-linejoin:miter;stroke:rgb(0%,0%,0%);stroke-opacity:1;stroke-miterlimit:10;" d="M 35.25 140.066406 L 38.089844 115.828125 "/>
<path style="fill:none;stroke-width:1.2;stroke-linecap:butt;stroke-linejoin:miter;stroke:rgb(0%,0%,0%);stroke-opacity:1;stroke-miterlimit:10;" d="M 38.089844 115.828125 L 60.503906 106.167969 "/>
<path style="fill:none;stroke-width:1.2;stroke-linecap:butt;stroke-linejoin:miter;stroke:rgb(0%,0%,0%);stroke-opacity:1;stroke-miterlimit:10;" d="M 42.605469 120.132812 L 60.535156 112.40625 "/>
<path style="fill:none;stroke-width:1.2;stroke-linecap:butt;stroke-linejoin:miter;stroke:rgb(0%,0%,0%);stroke-opacity:1;stroke-miterlimit:10;" d="M 60.503906 106.167969 L 80.078125 120.746094 "/>
<path style="fill:none;stroke-width:1.2;stroke-linecap:butt;stroke-linejoin:miter;stroke:rgb(0%,0%,0%);stroke-opacity:1;stroke-miterlimit:10;" d="M 80.078125 120.746094 L 91.285156 115.917969 "/>
<path style="fill:none;stroke-width:1.2;stroke-linecap:butt;stroke-linejoin:miter;stroke:rgb(20%,80%,80%);stroke-opacity:1;stroke-miterlimit:10;" d="M 91.285156 115.917969 L 102.488281 111.085938 "/>
<path style="fill:none;stroke-width:1.2;stroke-linecap:butt;stroke-linejoin:miter;stroke:rgb(0%,0%,0%);stroke-opacity:1;stroke-miterlimit:10;" d="M 80.078125 120.746094 L 77.234375 144.988281 "/>
<path style="fill:none;stroke-width:1.2;stroke-linecap:butt;stroke-linejoin:miter;stroke:rgb(0%,0%,0%);stroke-opacity:1;stroke-miterlimit:10;" d="M 74.089844 122.503906 L 71.816406 141.894531 "/>
<path style=" stroke:none;fill-rule:nonzero;fill:rgb(100%,100%,100%);fill-opacity:1;" d="M 99.488281 105.585938 L 105.488281 105.585938 L 105.488281 116.585938 L 99.488281 116.585938 Z M 99.488281 105.585938 "/>
<g style="fill:rgb(20%,80%,80%);fill-opacity:1;">
  <use xlink:href="#glyph0-1" x="99.488281" y="114.249023"/>
</g>
<path style="fill:none;stroke-width:1.2;stroke-linecap:butt;stroke-linejoin:miter;stroke:rgb(0%,0%,0%);stroke-opacity:1;stroke-miterlimit:10;" d="M 77.234375 144.988281 L 96.808594 159.570312 "/>
<path style="fill:none;stroke-width:1.2;stroke-linecap:butt;stroke-linejoin:miter;stroke:rgb(0%,0%,0%);stroke-opacity:1;stroke-miterlimit:10;" d="M 96.808594 159.570312 L 119.222656 149.910156 "/>
<path style="fill:none;stroke-width:1.2;stroke-linecap:butt;stroke-linejoin:miter;stroke:rgb(0%,0%,0%);stroke-opacity:1;stroke-miterlimit:10;" d="M 101.320312 163.875 L 119.253906 156.148438 "/>
<path style="fill:none;stroke-width:1.2;stroke-linecap:butt;stroke-linejoin:miter;stroke:rgb(0%,0%,0%);stroke-opacity:1;stroke-miterlimit:10;" d="M 93.964844 183.808594 L 96.808594 159.570312 "/>
<path style="fill:none;stroke-width:1.2;stroke-linecap:butt;stroke-linejoin:miter;stroke:rgb(0%,0%,0%);stroke-opacity:1;stroke-miterlimit:10;" d="M 119.222656 149.910156 L 129.007812 157.199219 "/>
<path style="fill:none;stroke-width:1.2;stroke-linecap:butt;stroke-linejoin:miter;stroke:rgb(0%,0%,100%);stroke-opacity:1;stroke-miterlimit:10;" d="M 129.007812 157.199219 L 138.792969 164.488281 "/>
<path style="fill:none;stroke-width:1.2;stroke-linecap:butt;stroke-linejoin:miter;stroke:rgb(0%,0%,0%);stroke-opacity:1;stroke-miterlimit:10;" d="M 122.0625 125.667969 L 119.222656 149.910156 "/>
<path style="fill:none;stroke-width:1.2;stroke-linecap:butt;stroke-linejoin:miter;stroke:rgb(0%,0%,100%);stroke-opacity:1;stroke-miterlimit:10;" d="M 138.792969 164.488281 L 161.207031 154.828125 "/>
<path style="fill:none;stroke-width:1.2;stroke-linecap:butt;stroke-linejoin:miter;stroke:rgb(0%,0%,100%);stroke-opacity:1;stroke-miterlimit:10;" d="M 138.792969 164.488281 L 137.371094 176.609375 "/>
<path style="fill:none;stroke-width:1.2;stroke-linecap:butt;stroke-linejoin:miter;stroke:rgb(0%,0%,0%);stroke-opacity:1;stroke-miterlimit:10;" d="M 137.371094 176.609375 L 135.953125 188.730469 "/>
<path style=" stroke:none;fill-rule:nonzero;fill:rgb(100%,100%,100%);fill-opacity:1;" d="M 135.792969 158.988281 L 142.792969 158.988281 L 142.792969 169.988281 L 135.792969 169.988281 Z M 135.792969 158.988281 "/>
<g style="fill:rgb(0%,0%,100%);fill-opacity:1;">
  <use xlink:href="#glyph0-2" x="135.792969" y="167.651367"/>
</g>
<path style="fill:none;stroke-width:1.2;stroke-linecap:butt;stroke-linejoin:miter;stroke:rgb(0%,0%,100%);stroke-opacity:1;stroke-miterlimit:10;" d="M 161.207031 154.828125 L 162.628906 142.710938 "/>
<path style="fill:none;stroke-width:1.2;stroke-linecap:butt;stroke-linejoin:miter;stroke:rgb(0%,0%,0%);stroke-opacity:1;stroke-miterlimit:10;" d="M 162.628906 142.710938 L 164.046875 130.589844 "/>
<path style="fill:none;stroke-width:1.2;stroke-linecap:butt;stroke-linejoin:miter;stroke:rgb(0%,0%,100%);stroke-opacity:1;stroke-miterlimit:10;" d="M 155.789062 151.738281 L 156.921875 142.042969 "/>
<path style="fill:none;stroke-width:1.2;stroke-linecap:butt;stroke-linejoin:miter;stroke:rgb(0%,0%,0%);stroke-opacity:1;stroke-miterlimit:10;" d="M 156.921875 142.042969 L 158.058594 132.34375 "/>
<path style=" stroke:none;fill-rule:nonzero;fill:rgb(100%,100%,100%);fill-opacity:1;" d="M 158.207031 149.328125 L 165.207031 149.328125 L 165.207031 160.328125 L 158.207031 160.328125 Z M 158.207031 149.328125 "/>
<g style="fill:rgb(0%,0%,100%);fill-opacity:1;">
  <use xlink:href="#glyph0-2" x="158.207031" y="157.991211"/>
</g>
<path style="fill:none;stroke-width:1.2;stroke-linecap:butt;stroke-linejoin:miter;stroke:rgb(0%,0%,0%);stroke-opacity:1;stroke-miterlimit:10;" d="M 164.046875 130.589844 L 175.253906 125.757812 "/>
<path style="fill:none;stroke-width:1.2;stroke-linecap:butt;stroke-linejoin:miter;stroke:rgb(100%,0%,0%);stroke-opacity:1;stroke-miterlimit:10;" d="M 175.253906 125.757812 L 186.460938 120.929688 "/>
<path style="fill:none;stroke-width:1.2;stroke-linecap:butt;stroke-linejoin:miter;stroke:rgb(0%,0%,0%);stroke-opacity:1;stroke-miterlimit:10;" d="M 164.046875 130.589844 L 144.476562 116.007812 "/>
<path style="fill:none;stroke-width:1.2;stroke-linecap:butt;stroke-linejoin:miter;stroke:rgb(100%,0%,0%);stroke-opacity:1;stroke-miterlimit:10;" d="M 186.460938 120.929688 L 196.246094 128.21875 "/>
<path style="fill:none;stroke-width:1.2;stroke-linecap:butt;stroke-linejoin:miter;stroke:rgb(0%,0%,0%);stroke-opacity:1;stroke-miterlimit:10;" d="M 196.246094 128.21875 L 206.035156 135.511719 "/>
<path style=" stroke:none;fill-rule:nonzero;fill:rgb(100%,100%,100%);fill-opacity:1;" d="M 182.460938 115.429688 L 190.460938 115.429688 L 190.460938 126.429688 L 182.460938 126.429688 Z M 182.460938 115.429688 "/>
<g style="fill:rgb(100%,0%,0%);fill-opacity:1;">
  <use xlink:href="#glyph0-3" x="182.460938" y="124.092773"/>
</g>
<path style="fill:none;stroke-width:1.2;stroke-linecap:butt;stroke-linejoin:miter;stroke:rgb(0%,0%,0%);stroke-opacity:1;stroke-miterlimit:10;" d="M 206.035156 135.511719 L 203.191406 159.75 "/>
<path style="fill:none;stroke-width:1.2;stroke-linecap:butt;stroke-linejoin:miter;stroke:rgb(0%,0%,0%);stroke-opacity:1;stroke-miterlimit:10;" d="M 211.453125 138.601562 L 209.179688 157.996094 "/>
<path style="fill:none;stroke-width:1.2;stroke-linecap:butt;stroke-linejoin:miter;stroke:rgb(0%,0%,0%);stroke-opacity:1;stroke-miterlimit:10;" d="M 228.445312 125.851562 L 206.035156 135.511719 "/>
<path style="fill:none;stroke-width:1.2;stroke-linecap:butt;stroke-linejoin:miter;stroke:rgb(0%,0%,0%);stroke-opacity:1;stroke-miterlimit:10;" d="M 203.191406 159.75 L 222.765625 174.332031 "/>
<path style="fill:none;stroke-width:1.2;stroke-linecap:butt;stroke-linejoin:miter;stroke:rgb(0%,0%,0%);stroke-opacity:1;stroke-miterlimit:10;" d="M 222.765625 174.332031 L 245.179688 164.671875 "/>
<path style="fill:none;stroke-width:1.2;stroke-linecap:butt;stroke-linejoin:miter;stroke:rgb(0%,0%,0%);stroke-opacity:1;stroke-miterlimit:10;" d="M 222.734375 168.09375 L 240.664062 160.363281 "/>
<path style="fill:none;stroke-width:1.2;stroke-linecap:butt;stroke-linejoin:miter;stroke:rgb(0%,0%,0%);stroke-opacity:1;stroke-miterlimit:10;" d="M 245.179688 164.671875 L 254.964844 171.960938 "/>
<path style="fill:none;stroke-width:1.2;stroke-linecap:butt;stroke-linejoin:miter;stroke:rgb(20%,80%,80%);stroke-opacity:1;stroke-miterlimit:10;" d="M 254.964844 171.960938 L 264.75 179.253906 "/>
<path style="fill:none;stroke-width:1.2;stroke-linecap:butt;stroke-linejoin:miter;stroke:rgb(0%,0%,0%);stroke-opacity:1;stroke-miterlimit:10;" d="M 245.179688 164.671875 L 248.019531 140.429688 "/>
<path style=" stroke:none;fill-rule:nonzero;fill:rgb(100%,100%,100%);fill-opacity:1;" d="M 261.75 173.753906 L 267.75 173.753906 L 267.75 184.753906 L 261.75 184.753906 Z M 261.75 173.753906 "/>
<g style="fill:rgb(20%,80%,80%);fill-opacity:1;">
  <use xlink:href="#glyph0-1" x="261.75" y="182.416992"/>
</g>
<path style="fill:none;stroke-width:1.2;stroke-linecap:butt;stroke-linejoin:miter;stroke:rgb(0%,0%,0%);stroke-opacity:1;stroke-miterlimit:10;" d="M 248.019531 140.429688 L 228.445312 125.851562 "/>
<path style="fill:none;stroke-width:1.2;stroke-linecap:butt;stroke-linejoin:miter;stroke:rgb(0%,0%,0%);stroke-opacity:1;stroke-miterlimit:10;" d="M 242.632812 143.578125 L 226.972656 131.914062 "/>
<path style="fill:none;stroke-width:1.2;stroke-linecap:butt;stroke-linejoin:miter;stroke:rgb(0%,0%,0%);stroke-opacity:1;stroke-miterlimit:10;" d="M 228.445312 125.851562 L 229.867188 113.730469 "/>
<path style="fill:none;stroke-width:1.2;stroke-linecap:butt;stroke-linejoin:miter;stroke:rgb(20%,80%,80%);stroke-opacity:1;stroke-miterlimit:10;" d="M 229.867188 113.730469 L 231.289062 101.609375 "/>
<path style=" stroke:none;fill-rule:nonzero;fill:rgb(100%,100%,100%);fill-opacity:1;" d="M 228.289062 96.109375 L 234.289062 96.109375 L 234.289062 107.109375 L 228.289062 107.109375 Z M 228.289062 96.109375 "/>
<g style="fill:rgb(20%,80%,80%);fill-opacity:1;">
  <use xlink:href="#glyph0-1" x="228.289062" y="104.772461"/>
</g>
<path style="fill:none;stroke-width:1.2;stroke-linecap:butt;stroke-linejoin:miter;stroke:rgb(0%,0%,0%);stroke-opacity:1;stroke-miterlimit:10;" d="M 144.476562 116.007812 L 122.0625 125.667969 "/>
<path style="fill:none;stroke-width:1.2;stroke-linecap:butt;stroke-linejoin:miter;stroke:rgb(0%,0%,0%);stroke-opacity:1;stroke-miterlimit:10;" d="M 144.507812 122.25 L 126.578125 129.976562 "/>
<path style="fill:none;stroke-width:1.2;stroke-linecap:butt;stroke-linejoin:miter;stroke:rgb(0%,0%,0%);stroke-opacity:1;stroke-miterlimit:10;" d="M 135.953125 188.730469 L 113.539062 198.390625 "/>
<path style="fill:none;stroke-width:1.2;stroke-linecap:butt;stroke-linejoin:miter;stroke:rgb(0%,0%,0%);stroke-opacity:1;stroke-miterlimit:10;" d="M 131.4375 184.421875 L 113.507812 192.148438 "/>
<path style="fill:none;stroke-width:1.2;stroke-linecap:butt;stroke-linejoin:miter;stroke:rgb(0%,0%,0%);stroke-opacity:1;stroke-miterlimit:10;" d="M 113.539062 198.390625 L 93.964844 183.808594 "/>
<path style="fill:none;stroke-width:1.2;stroke-linecap:butt;stroke-linejoin:miter;stroke:rgb(0%,0%,0%);stroke-opacity:1;stroke-miterlimit:10;" d="M 92.832031 181.171875 L 81.625 186 "/>
<path style="fill:none;stroke-width:1.2;stroke-linecap:butt;stroke-linejoin:miter;stroke:rgb(100%,0%,0%);stroke-opacity:1;stroke-miterlimit:10;" d="M 81.625 186 L 70.417969 190.832031 "/>
<path style="fill:none;stroke-width:1.2;stroke-linecap:butt;stroke-linejoin:miter;stroke:rgb(0%,0%,0%);stroke-opacity:1;stroke-miterlimit:10;" d="M 95.101562 186.445312 L 83.894531 191.277344 "/>
<path style="fill:none;stroke-width:1.2;stroke-linecap:butt;stroke-linejoin:miter;stroke:rgb(100%,0%,0%);stroke-opacity:1;stroke-miterlimit:10;" d="M 83.894531 191.277344 L 72.691406 196.105469 "/>
<path style=" stroke:none;fill-rule:nonzero;fill:rgb(100%,100%,100%);fill-opacity:1;" d="M 63.554688 187.96875 L 71.554688 187.96875 L 71.554688 198.96875 L 63.554688 198.96875 Z M 63.554688 187.96875 "/>
<g style="fill:rgb(100%,0%,0%);fill-opacity:1;">
  <use xlink:href="#glyph0-3" x="63.554688" y="196.631836"/>
</g>
</g>
</svg>

<svg xmlns="http://www.w3.org/2000/svg" xmlns:xlink="http://www.w3.org/1999/xlink" width="300pt" height="300pt" viewBox="0 0 300 300"><defs><symbol overflow="visible"><path d="M.453 1.594v-7.938h4.5v7.938zm.5-.5h3.5v-6.938h-3.5zm0 0"/></symbol><symbol overflow="visible" id="a"><path d="M.89-6.563h3.766v.75h-2.89v1.938h2.61v.734h-2.61V0H.89zm0 0"/></symbol><symbol overflow="visible" id="b"><path d="M.89-6.563H2.08l2.906 5.485v-5.484h.86V0H4.656L1.75-5.484V0H.89zm0 0"/></symbol><symbol overflow="visible" id="c"><path d="M3.547-5.953c-.65 0-1.164.242-1.547.72-.375.48-.563 1.13-.563 1.952 0 .835.188 1.49.563 1.967.383.48.898.72 1.547.72.644 0 1.156-.24 1.53-.72.376-.476.564-1.132.564-1.968 0-.822-.187-1.474-.562-1.954-.375-.477-.887-.72-1.53-.72zm0-.734c.914 0 1.648.312 2.203.937.55.617.828 1.438.828 2.47 0 1.042-.277 1.87-.828 2.483-.555.617-1.29.922-2.203.922-.93 0-1.668-.305-2.22-.922C.774-1.41.5-2.237.5-3.28c0-1.033.273-1.853.828-2.47.55-.625 1.29-.938 2.22-.938zm0 0"/></symbol></defs><g><path fill="#fff" d="M0 0h300v300H0z"/><path d="M51.98 178.887l1.422-12.117" stroke-width="1.2" stroke="#3cc" stroke-miterlimit="10" fill="none"/><path d="M53.402 166.77l1.418-12.122" stroke-width="1.2" stroke="#000" stroke-miterlimit="10" fill="none"/><path d="M48.98 173.387h6v11h-6zm0 0" fill="#fff"/><use xlink:href="#a" x="48.98" y="182.05" fill="#3cc"/><path d="M54.82 154.648l-19.57-14.582M56.297 148.586l-15.66-11.668M77.234 144.988l-22.414 9.66M35.25 140.066l2.84-24.238M38.09 115.828l22.414-9.66M42.605 120.133l17.93-7.727M60.504 106.168l19.574 14.578M80.078 120.746l11.207-4.828" stroke-width="1.2" stroke="#000" stroke-miterlimit="10" fill="none"/><path d="M91.285 115.918l11.203-4.832" stroke-width="1.2" stroke="#3cc" stroke-miterlimit="10" fill="none"/><path d="M80.078 120.746l-2.844 24.242M74.09 122.504l-2.274 19.39" stroke-width="1.2" stroke="#000" stroke-miterlimit="10" fill="none"/><path d="M99.488 105.586h6v11h-6zm0 0" fill="#fff"/><use xlink:href="#a" x="99.488" y="114.249" fill="#3cc"/><path d="M77.234 144.988L96.81 159.57M96.81 159.57l22.413-9.66M101.32 163.875l17.934-7.727M93.965 183.81l2.844-24.24M119.223 149.91l9.785 7.29" stroke-width="1.2" stroke="#000" stroke-miterlimit="10" fill="none"/><path d="M129.008 157.2l9.785 7.288" stroke-width="1.2" stroke="#00f" stroke-miterlimit="10" fill="none"/><path d="M122.063 125.668l-2.84 24.242" stroke-width="1.2" stroke="#000" stroke-miterlimit="10" fill="none"/><path d="M138.793 164.488l22.414-9.66M138.793 164.488l-1.422 12.12" stroke-width="1.2" stroke="#00f" stroke-miterlimit="10" fill="none"/><path d="M137.37 176.61l-1.417 12.12" stroke-width="1.2" stroke="#000" stroke-miterlimit="10" fill="none"/><path d="M135.793 158.988h7v11h-7zm0 0" fill="#fff"/><use xlink:href="#b" x="135.793" y="167.651" fill="#00f"/><path d="M161.207 154.828l1.422-12.117" stroke-width="1.2" stroke="#00f" stroke-miterlimit="10" fill="none"/><path d="M162.63 142.71l1.417-12.12" stroke-width="1.2" stroke="#000" stroke-miterlimit="10" fill="none"/><path d="M155.79 151.738l1.132-9.695" stroke-width="1.2" stroke="#00f" stroke-miterlimit="10" fill="none"/><path d="M156.922 142.043l1.137-9.7" stroke-width="1.2" stroke="#000" stroke-miterlimit="10" fill="none"/><path d="M158.207 149.328h7v11h-7zm0 0" fill="#fff"/><use xlink:href="#b" x="158.207" y="157.991" fill="#00f"/><path d="M164.047 130.59l11.207-4.832" stroke-width="1.2" stroke="#000" stroke-miterlimit="10" fill="none"/><path d="M175.254 125.758l11.207-4.828" stroke-width="1.2" stroke="#f00" stroke-miterlimit="10" fill="none"/><path d="M164.047 130.59l-19.57-14.582" stroke-width="1.2" stroke="#000" stroke-miterlimit="10" fill="none"/><path d="M186.46 120.93l9.786 7.29" stroke-width="1.2" stroke="#f00" stroke-miterlimit="10" fill="none"/><path d="M196.246 128.22l9.79 7.292" stroke-width="1.2" stroke="#000" stroke-miterlimit="10" fill="none"/><path d="M182.46 115.43h8v11h-8zm0 0" fill="#fff"/><use xlink:href="#c" x="182.461" y="124.093" fill="#f00"/><path d="M206.035 135.512l-2.844 24.238M211.453 138.602l-2.273 19.394M228.445 125.852l-22.41 9.66M203.19 159.75l19.576 14.582M222.766 174.332l22.414-9.66M222.734 168.094l17.93-7.73M245.18 164.672l9.785 7.29" stroke-width="1.2" stroke="#000" stroke-miterlimit="10" fill="none"/><path d="M254.965 171.96l9.785 7.294" stroke-width="1.2" stroke="#3cc" stroke-miterlimit="10" fill="none"/><path d="M245.18 164.672l2.84-24.242" stroke-width="1.2" stroke="#000" stroke-miterlimit="10" fill="none"/><path d="M261.75 173.754h6v11h-6zm0 0" fill="#fff"/><use xlink:href="#a" x="261.75" y="182.417" fill="#3cc"/><path d="M248.02 140.43l-19.575-14.578M242.633 143.578l-15.66-11.664M228.445 125.852l1.422-12.122" stroke-width="1.2" stroke="#000" stroke-miterlimit="10" fill="none"/><path d="M229.867 113.73l1.422-12.12" stroke-width="1.2" stroke="#3cc" stroke-miterlimit="10" fill="none"/><path d="M228.29 96.11h6v11h-6zm0 0" fill="#fff"/><use xlink:href="#a" x="228.289" y="104.772" fill="#3cc"/><path d="M144.477 116.008l-22.415 9.66M144.508 122.25l-17.93 7.727M135.953 188.73l-22.414 9.66M131.438 184.422l-17.93 7.726M113.54 198.39l-19.575-14.58M92.832 181.172L81.625 186" stroke-width="1.2" stroke="#000" stroke-miterlimit="10" fill="none"/><path d="M81.625 186l-11.207 4.832" stroke-width="1.2" stroke="#f00" stroke-miterlimit="10" fill="none"/><path d="M95.102 186.445l-11.207 4.832" stroke-width="1.2" stroke="#000" stroke-miterlimit="10" fill="none"/><path d="M83.895 191.277l-11.204 4.828" stroke-width="1.2" stroke="#f00" stroke-miterlimit="10" fill="none"/><path d="M63.555 187.97h8v11h-8zm0 0" fill="#fff"/><use xlink:href="#c" x="63.555" y="196.632" fill="#f00"/></g></svg>
